images/Logo-blue-pewter.svg

<?xml version="1.0" encoding="UTF-8"?>
<svg width="190px" height="48px" viewBox="0 0 190 48" version="1.1" xmlns="http://www.w3.org/2000/svg" xmlns:xlink="http://www.w3.org/1999/xlink">
    <!-- Generator: Sketch 41.2 (35397) - http://www.bohemiancoding.com/sketch -->
    <title>Logo-blue-pewter</title>
    <desc>Created with Sketch.</desc>
    <defs></defs>
    <g id="Components" stroke="none" stroke-width="1" fill="none" fill-rule="evenodd">
        <g id="Web-Mobile" transform="translate(-65.000000, -622.000000)">
            <g id="Logo" transform="translate(13.000000, 374.000000)">
                <g id="Two-Color" transform="translate(0.000000, 92.000000)">
                    <g id="Logo-blue-pewter" transform="translate(52.000000, 156.000000)">
                        <path d="M19.475354,30.4729652 C17.36163,28.2809693 14.9544047,27.1638575 12.3154678,27.1638575 C10.0640041,27.1638575 8.13564925,27.9469874 6.58575658,29.4748584 C5.03972577,31.0142461 4.25705571,32.9324024 4.25705571,35.1807017 C4.25705571,36.7431226 4.60076114,38.1609459 5.28688473,39.3701905 C5.97558289,40.59735 6.9590696,41.5583476 8.20902461,42.2506241 C9.45254308,42.9352229 10.8672707,43.2909584 12.3965668,43.2909584 C13.7005878,43.2909584 14.9080624,43.0452706 15.9893828,42.5654116 C17.0449576,42.0868323 18.2215372,41.2102898 19.4714922,39.9856897 C19.6002208,40.1162113 22.2211357,42.8392511 22.3614499,42.9697728 C20.6751049,44.5961749 19.0595606,45.7363198 17.5572975,46.368454 C16.0318632,47.0121049 14.2669938,47.3460867 12.3219042,47.3460867 C8.72651369,47.3460867 5.73872221,46.1867474 3.4512145,43.9243722 C1.15598308,41.655599 0,38.7175823 0,35.1679054 C0,32.8748193 0.5252128,30.8107859 1.56534011,29.0295493 C2.61190385,27.2547108 4.12832708,25.7959395 6.0682675,24.7069795 C8.01979349,23.6244177 10.1463904,23.0792979 12.3862685,23.0792979 C14.2940268,23.0792979 16.1593046,23.483659 17.9254614,24.2847037 C19.6658724,25.0755113 21.1771465,26.2130969 22.4489853,27.6603517 L19.475354,30.4729652" id="Fill-1" fill="#265B80"></path>
                        <path d="M26.1808282,31.5939157 C24.2267277,33.3713134 23.2355173,35.6093757 23.2355173,38.2581973 C23.2355173,40.7278716 24.1108719,42.8610048 25.8409846,44.5897767 C27.573672,46.3108709 29.6848215,47.2002096 32.1255163,47.2002096 C33.7912647,47.2002096 35.3295718,46.7971281 36.71083,46.0101593 C38.0920882,45.2295887 39.1952925,44.122714 39.9946972,42.7368812 C40.7902402,41.3369726 41.1931608,39.8257367 41.1931608,38.2274864 C41.1931608,36.6407526 40.7966766,35.1359149 40.0011337,33.7654376 C39.206878,32.3898418 38.0920882,31.2880856 36.6709241,30.4908799 C35.2523347,29.6898352 33.7217512,29.2918722 32.1139307,29.2918722 C29.8869255,29.2918722 27.8890571,30.0686039 26.1808282,31.5939157 M28.7193568,41.9575902 L28.7193568,41.9575902 C27.8234056,41.00555 27.3638443,39.7630351 27.3638443,38.2454011 C27.3638443,36.7661558 27.829842,35.5364372 28.7373788,34.5882358 C29.6513521,33.6310771 30.811197,33.1499385 32.1834442,33.1499385 C33.5814371,33.1499385 34.7554422,33.6259586 35.6565425,34.5690414 C36.5589302,35.5070058 37.012055,36.7444022 37.012055,38.2454011 C37.012055,39.7387223 36.5512065,40.9812372 35.6243604,41.9396755 C34.7155363,42.9006731 33.5505422,43.3792525 32.1654222,43.3792525 C30.7841639,43.3792525 29.6256064,42.9006731 28.7193568,41.9575902" id="Fill-4" fill="#265B80"></path>
                        <polygon id="Fill-5" fill="#265B80" points="43.7728824 23.5015737 47.9192316 23.5015737 47.9192316 46.760019 43.7728824 46.760019"></polygon>
                        <path d="M53.4532752,31.5939157 C51.4978875,33.3713134 50.5105389,35.6093757 50.5105389,38.2581973 C50.5105389,40.7278716 51.3871808,42.8610048 53.114719,44.5897767 C54.8461191,46.3108709 56.9585558,47.2002096 59.4043997,47.2002096 C61.0662863,47.2002096 62.6045934,46.7971281 63.9871389,46.0101593 C65.3606733,45.2295887 66.4677395,44.122714 67.265857,42.7368812 C68.0639745,41.3369726 68.4681824,39.8257367 68.4681824,38.2274864 C68.4681824,36.6407526 68.0678363,35.1359149 67.274868,33.7654376 C66.4780378,32.3898418 65.3606733,31.2880856 63.947233,30.4908799 C62.5260689,29.6898352 60.9954855,29.2918722 59.387665,29.2918722 C57.1670962,29.2918722 55.1679406,30.0686039 53.4532752,31.5939157 M55.9995275,41.9575902 L55.9995275,41.9575902 C55.093278,41.00555 54.6388659,39.7630351 54.6388659,38.2454011 C54.6388659,36.7661558 55.0997144,35.5364372 56.0136876,34.5882358 C56.9289482,33.6310771 58.0862185,33.1499385 59.4558912,33.1499385 C60.8590332,33.1499385 62.0266018,33.6259586 62.9289896,34.5690414 C63.8288026,35.5070058 64.2883639,36.7444022 64.2883639,38.2454011 C64.2883639,39.7387223 63.8249408,40.9812372 62.9045311,41.9396755 C61.9892705,42.9006731 60.8204146,43.3792525 59.4391564,43.3792525 C58.056611,43.3792525 56.8993406,42.9006731 55.9995275,41.9575902" id="Fill-6" fill="#265B80"></path>
                        <path d="M78.3210715,29.7704515 L78.3210715,29.7704515 C77.5345396,30.0788409 76.6450248,30.6559513 75.6666873,31.4697922 L75.5006273,31.6131101 L75.5006273,29.7307832 L71.3504163,29.7307832 L71.3504163,46.760019 L75.5006273,46.760019 L75.5006273,39.9447417 C75.5006273,38.1251164 75.5662789,36.9772937 75.6962948,36.4232166 C75.9434538,35.3752046 76.394004,34.5408897 77.0337852,33.9471442 C77.6838648,33.3495598 78.471684,33.0488481 79.3766463,33.0488481 C80.0717808,33.0488481 80.6665071,33.2305548 81.1479522,33.5914087 C81.6178117,33.9637793 81.9589422,34.4999417 82.150748,35.1909387 C82.3412664,35.8832152 82.4326637,37.2268205 82.4326637,39.3177259 L82.4326637,46.760019 L86.519798,46.760019 L86.519798,35.4711763 C86.519798,33.5261479 86.0254802,32.0289878 85.0445675,31.0487959 C83.869275,29.8741011 82.4275149,29.2905926 80.7463188,29.2905926 C79.9198811,29.2905926 79.1088907,29.4505455 78.3210715,29.7704515" id="Fill-7" fill="#265B80"></path>
                        <polygon id="Fill-8" fill="#265B80" points="90.4550321 29.7307832 94.6039556 29.7307832 94.6039556 46.760019 90.4550321 46.760019"></polygon>
                        <path d="M100.289899,31.7960963 L100.289899,31.7960963 C98.7361444,33.4736833 97.948325,35.6490441 97.948325,38.279951 C97.948325,40.7969712 98.7631777,42.9365026 100.359413,44.6332839 C101.976244,46.3339042 103.898163,47.2002096 106.096848,47.2002096 C107.068748,47.2002096 107.990446,47.0261807 108.829756,46.6704453 C109.665205,46.3300653 110.509665,45.7503956 111.352837,44.9634269 L111.518897,44.7945166 L111.518897,46.760019 L115.669108,46.760019 L115.669108,29.7307832 L111.518897,29.7307832 L111.518897,31.7807408 L111.347688,31.5951954 C110.58304,30.8338191 109.74373,30.2503106 108.847778,29.8638641 C107.954401,29.4799769 106.990224,29.2905926 105.968119,29.2905926 C103.746263,29.2905926 101.839792,30.136424 100.289899,31.7960963 M102.076652,38.2274864 C102.076652,36.7341652 102.529777,35.4890911 103.437314,34.5293731 C104.33584,33.5645367 105.486674,33.0872369 106.851198,33.0872369 C108.246616,33.0872369 109.416759,33.5517404 110.329445,34.5076195 C111.245993,35.4481431 111.700405,36.6932172 111.700405,38.2108513 C111.700405,39.7630351 111.245993,41.0337017 110.329445,41.9921401 C109.416759,42.9544173 108.254339,43.4381152 106.869219,43.4381152 C105.52143,43.4381152 104.371883,42.9403414 103.455336,41.9665476 C102.540075,40.9940334 102.076652,39.7348834 102.076652,38.2274864" id="Fill-9" fill="#265B80"></path>
                        <polygon id="Fill-10" fill="#265B80" points="119.818032 23.0805775 123.964381 23.0805775 123.964381 46.760019 119.818032 46.760019"></polygon>
                        <polyline id="Fill-11" fill="#265B80" points="135.353003 23.0677813 135.353003 46.760019 146.099268 46.760019 146.099268 42.7253646 139.610058 42.7253646 139.610058 23.0677813 135.353003 23.0677813"></polyline>
                        <path d="M160.489842,23.4439907 C159.834613,23.9788735 159.438129,24.7172165 159.327422,25.6347069 C159.270782,26.0416273 159.228301,27.3852325 159.218003,29.6245744 L159.218003,29.7320629 L157.669398,29.7320629 L157.669398,33.1806495 L159.218003,33.1806495 L159.218003,46.760019 L163.372076,46.760019 L163.372076,33.1806495 L166.117857,33.1806495 L166.117857,29.7320629 L163.372076,29.7320629 L163.383662,27.4709673 C163.383662,26.9386438 163.477633,26.5931452 163.666864,26.4152776 C163.932045,26.1811064 164.329817,26.0621013 164.857604,26.0621013 C165.238641,26.0621013 165.72781,26.1567935 166.30194,26.311628 L166.30194,23.2277342 C165.214182,22.8425674 164.212673,22.6391072 163.34633,22.6391072 C162.119546,22.6391072 161.156656,22.9078282 160.489842,23.4439907" id="Fill-12" fill="#265B80"></path>
                        <path d="M169.700375,31.8600775 C168.019179,33.5645367 167.165708,35.7462955 167.165708,38.3388137 C167.165708,40.8583933 168.019179,42.9915263 169.706812,44.6716727 C171.385433,46.3467004 173.595703,47.2002096 176.284844,47.2002096 C178.012382,47.2002096 179.521082,46.8879814 180.777474,46.28016 C182.001683,45.6876941 183.057257,44.7625259 183.940336,43.5379258 C183.716348,43.4381152 180.566358,41.9703865 180.454365,41.9179219 C179.279072,43.033754 177.872068,43.6031866 176.250087,43.6031866 C174.868829,43.6031866 173.711559,43.2333753 172.820757,42.4899138 C171.937679,41.75413 171.373847,40.7445067 171.17303,39.4981529 L171.152434,39.3778683 L185.145235,39.3778683 C185.155534,39.2230338 185.164545,38.6548807 185.164545,38.6548807 C185.164545,35.8563432 184.313649,33.5645367 182.624729,31.8600775 C180.946108,30.1543387 178.735838,29.2918722 176.036398,29.2918722 C173.512029,29.2918722 171.373847,30.1543387 169.700375,31.8600775 M176.243651,32.7391791 C177.380325,32.7391791 178.395994,33.0488481 179.258475,33.6566696 C180.120957,34.2721687 180.704098,35.0834503 180.997599,36.0521256 L181.038793,36.1877658 L171.295323,36.1877658 L171.364836,36.0418886 C171.85658,34.9695637 172.407538,34.203069 172.986817,33.7654376 C173.918812,33.0872369 175.018154,32.7391791 176.243651,32.7391791" id="Fill-13" fill="#265B80"></path>
                        <path d="M148.90169,17.7675788 C148.90169,19.968532 150.196701,21.7638444 151.778775,21.7638444 C153.362138,21.7638444 154.646849,19.968532 154.646849,17.7675788 C154.646849,15.5602274 153.362138,13.7700335 151.778775,13.7700335 C150.196701,13.7700335 148.90169,15.5602274 148.90169,17.7675788" id="Fill-14" fill="#5B7183"></path>
                        <path d="M127.344795,11.627943 C127.344795,15.2851083 128.390071,18.3779594 129.612993,18.3779594 C130.850075,18.3779594 131.88634,15.2851083 131.88634,11.627943 C131.88634,7.96821844 130.850075,4.87920618 129.612993,4.87920618 C128.390071,4.87920618 127.344795,7.96821844 127.344795,11.627943" id="Fill-15" fill="#5B7183"></path>
                        <path d="M89.1690327,19.2621795 C89.1690327,21.2404782 90.7871521,22.8476859 92.7760091,22.8476859 C94.7700156,22.8476859 96.3868469,21.2404782 96.3868469,19.2621795 C96.3868469,17.2762032 94.7700156,15.674114 92.7760091,15.674114 C90.7871521,15.674114 89.1690327,17.2762032 89.1690327,19.2621795" id="Fill-16" fill="#5B7183"></path>
                        <path d="M106.197256,19.1444542 C107.93123,19.1444542 109.34982,17.0906577 109.34982,14.574917 C109.34982,12.0527782 107.93123,9.99770207 106.197256,9.99770207 C104.458132,9.99770207 103.042117,12.0527782 103.042117,14.574917 C103.042117,17.0906577 104.458132,19.1444542 106.197256,19.1444542" id="Fill-17" fill="#5B7183"></path>
                        <path d="M138.357529,5.54333102 C138.357529,8.33930936 139.563716,10.61704 141.044096,10.61704 C142.520613,10.61704 143.729375,8.33930936 143.729375,5.54333102 C143.729375,2.73839528 142.57854,0.454266508 141.102023,0.454266508 C139.617782,0.454266508 138.357529,2.73839528 138.357529,5.54333102" id="Fill-18" fill="#5B7183"></path>
                        <path d="M115.902107,8.0462755 C115.902107,11.0265197 116.952533,13.4514071 118.252691,13.4514071 C119.555426,13.4514071 120.613575,11.0265197 120.613575,8.0462755 C120.613575,5.06731091 119.555426,2.64626236 118.252691,2.64626236 C116.952533,2.64626236 115.902107,5.06731091 115.902107,8.0462755" id="Fill-19" fill="#5B7183"></path>
                        <polygon id="Fill-20" fill="#265B80" points="149.70367 29.7307832 153.856456 29.7307832 153.856456 46.760019 149.70367 46.760019"></polygon>
                        <path d="M187.020811,44.7087817 L187.282131,44.7087817 C187.556323,44.7087817 187.815067,44.6230469 187.815067,44.3875962 C187.815067,44.190534 187.678615,44.0420977 187.319462,44.0420977 C187.171424,44.0420977 187.083889,44.0548939 187.020811,44.0676902 L187.020811,44.7087817 L187.020811,44.7087817 Z M187.020811,45.868121 L186.635913,45.868121 L186.635913,43.8079265 C186.847028,43.772097 187.071016,43.7465046 187.356794,43.7465046 C187.704361,43.7465046 187.878145,43.8079265 188.003012,43.9064575 C188.126591,43.9921923 188.211551,44.153425 188.211551,44.3517667 C188.211551,44.5974545 188.026183,44.7586871 187.815067,44.8329053 L187.815067,44.8572181 C187.991426,44.9314363 188.089259,45.0913893 188.152337,45.3626696 C188.211551,45.671059 188.263043,45.7951825 188.313247,45.868121 L187.915476,45.868121 C187.852399,45.7951825 187.802195,45.6096371 187.741692,45.3383567 C187.691488,45.1041855 187.556323,45.0043749 187.269258,45.0043749 L187.020811,45.0043749 L187.020811,45.868121 L187.020811,45.868121 Z M185.794028,44.783 C185.794028,45.6953718 186.475002,46.4119613 187.395412,46.4119613 C188.274629,46.4247575 188.946592,45.6953718 188.946592,44.7945166 C188.946592,43.8936612 188.274629,43.1668348 187.369666,43.1668348 C186.475002,43.1668348 185.794028,43.8936612 185.794028,44.783 L185.794028,44.783 Z M189.381695,44.783 C189.381695,45.9052302 188.511489,46.7689763 187.38254,46.7689763 C186.251015,46.7689763 185.358925,45.9052302 185.358925,44.783 C185.358925,43.6838029 186.251015,42.8200568 187.395412,42.8200568 C188.511489,42.8200568 189.381695,43.6838029 189.381695,44.783 L189.381695,44.783 Z" id="Fill-21" fill="#5B7183"></path>
                    </g>
                </g>
            </g>
        </g>
    </g>
</svg>

<svg width="190" height="48" viewBox="0 0 190 48" xmlns="http://www.w3.org/2000/svg"><title>Logo-blue-pewter</title><g fill="none" fill-rule="evenodd"><path d="M19.475 30.473c-2.113-2.192-4.52-3.31-7.16-3.31-2.251 0-4.18.784-5.73 2.312-1.545 1.54-2.328 3.457-2.328 5.706 0 1.562.344 2.98 1.03 4.19.689 1.226 1.672 2.187 2.922 2.88 1.244.684 2.658 1.04 4.188 1.04 1.304 0 2.511-.246 3.592-.726 1.056-.478 2.233-1.355 3.482-2.58.13.131 2.75 2.854 2.89 2.985-1.686 1.626-3.301 2.766-4.804 3.398-1.525.644-3.29.978-5.235.978-3.595 0-6.583-1.16-8.87-3.422C1.155 41.656 0 38.718 0 35.168c0-2.293.525-4.357 1.565-6.138 1.047-1.775 2.563-3.234 4.503-4.323a12.876 12.876 0 0 1 6.318-1.628c1.908 0 3.773.405 5.54 1.206a13.32 13.32 0 0 1 4.523 3.375l-2.974 2.813m6.705 1.121c-1.953 1.777-2.944 4.015-2.944 6.664 0 2.47.875 4.603 2.605 6.332 1.733 1.72 3.844 2.61 6.285 2.61 1.665 0 3.204-.403 4.585-1.19a8.694 8.694 0 0 0 3.284-3.273 9.006 9.006 0 0 0 1.198-4.51 8.78 8.78 0 0 0-1.192-4.462 8.694 8.694 0 0 0-3.33-3.274 9.15 9.15 0 0 0-4.557-1.2c-2.227 0-4.225.778-5.933 2.303m2.538 10.364c-.896-.952-1.355-2.195-1.355-3.713 0-1.479.466-2.709 1.373-3.657.914-.957 2.074-1.438 3.446-1.438 1.398 0 2.572.476 3.474 1.419.902.938 1.355 2.175 1.355 3.676 0 1.494-.46 2.736-1.388 3.695-.908.96-2.073 1.44-3.459 1.44-1.38 0-2.54-.48-3.446-1.422m15.054-18.456h4.146V46.76h-4.146zm9.68 8.092c-1.955 1.777-2.942 4.015-2.942 6.664 0 2.47.876 4.603 2.604 6.332 1.731 1.72 3.844 2.61 6.29 2.61 1.661 0 3.2-.403 4.582-1.19a8.726 8.726 0 0 0 3.279-3.273 8.983 8.983 0 0 0 1.202-4.51c0-1.586-.4-3.091-1.193-4.462a8.759 8.759 0 0 0-3.328-3.274 9.166 9.166 0 0 0-4.56-1.2c-2.22 0-4.22.778-5.934 2.303M56 41.958c-.907-.952-1.361-2.195-1.361-3.713 0-1.479.46-2.709 1.375-3.657.915-.957 2.072-1.438 3.442-1.438 1.403 0 2.57.476 3.473 1.419.9.938 1.36 2.175 1.36 3.676 0 1.494-.464 2.736-1.384 3.695-.916.96-2.085 1.44-3.466 1.44-1.382 0-2.54-.48-3.44-1.422M78.321 29.77c-.786.309-1.676.886-2.654 1.7l-.166.143v-1.882h-4.15V46.76h4.15v-6.815c0-1.82.065-2.968.195-3.522.247-1.048.698-1.882 1.338-2.476.65-.597 1.438-.898 2.343-.898.695 0 1.29.182 1.771.542.47.373.81.909 1.003 1.6.19.692.282 2.036.282 4.127v7.442h4.087V35.471c0-1.945-.495-3.442-1.475-4.422-1.176-1.175-2.617-1.758-4.299-1.758a6.4 6.4 0 0 0-2.425.48m12.134-.041h4.149v17.03h-4.149zm9.835 2.066c-1.554 1.678-2.342 3.853-2.342 6.484 0 2.517.815 4.657 2.411 6.353 1.617 1.7 3.54 2.567 5.738 2.567.972 0 1.893-.174 2.733-.53.835-.34 1.68-.92 2.523-1.707l.166-.168v1.965h4.15V29.73h-4.15v2.05l-.171-.185c-.765-.761-1.604-1.345-2.5-1.731a7.23 7.23 0 0 0-2.88-.573c-2.222 0-4.128.845-5.678 2.505m1.787 6.431c0-1.493.453-2.738 1.36-3.698.899-.964 2.05-1.442 3.414-1.442 1.396 0 2.566.465 3.478 1.42.917.941 1.371 2.186 1.371 3.704 0 1.552-.454 2.823-1.37 3.781-.913.962-2.076 1.446-3.46 1.446-1.349 0-2.498-.498-3.415-1.471-.915-.973-1.378-2.232-1.378-3.74m17.741-15.147h4.146v23.68h-4.146zm15.535-.012V46.76h10.746v-4.035h-6.489V23.068h-4.257m25.137.376c-.655.535-1.052 1.273-1.163 2.19-.056.408-.099 1.751-.109 3.99v.108h-1.549v3.449h1.549V46.76h4.154V33.18h2.746v-3.448h-2.746l.012-2.261c0-.532.094-.878.283-1.056.265-.234.663-.353 1.19-.353.382 0 .87.095 1.445.25v-3.084c-1.088-.385-2.09-.589-2.956-.589-1.226 0-2.19.269-2.856.805m9.21 8.416c-1.68 1.705-2.534 3.886-2.534 6.479 0 2.52.853 4.653 2.54 6.333 1.68 1.675 3.89 2.528 6.579 2.528 1.727 0 3.236-.312 4.492-.92 1.225-.592 2.28-1.517 3.163-2.742-.224-.1-3.374-1.568-3.486-1.62-1.175 1.116-2.582 1.685-4.204 1.685-1.381 0-2.538-.37-3.43-1.113-.882-.736-1.446-1.745-1.647-2.992l-.02-.12h13.992c.01-.155.02-.723.02-.723 0-2.799-.851-5.09-2.54-6.795-1.679-1.706-3.89-2.568-6.589-2.568-2.524 0-4.662.862-6.336 2.568m6.544.88c1.136 0 2.152.309 3.014.917.863.615 1.446 1.426 1.74 2.395l.04.136h-9.743l.07-.146c.492-1.072 1.043-1.839 1.622-2.277.932-.678 2.031-1.026 3.257-1.026" fill="#265B80"/><path d="M148.902 17.768c0 2.2 1.295 3.996 2.877 3.996 1.583 0 2.868-1.795 2.868-3.996 0-2.208-1.285-3.998-2.868-3.998-1.582 0-2.877 1.79-2.877 3.998m-21.557-6.14c0 3.657 1.045 6.75 2.268 6.75 1.237 0 2.273-3.093 2.273-6.75 0-3.66-1.036-6.749-2.273-6.749-1.223 0-2.268 3.09-2.268 6.749m-38.176 7.634c0 1.978 1.618 3.586 3.607 3.586 1.994 0 3.61-1.608 3.61-3.586 0-1.986-1.616-3.588-3.61-3.588-1.989 0-3.607 1.602-3.607 3.588m17.028-.118c1.734 0 3.153-2.053 3.153-4.57 0-2.521-1.419-4.576-3.153-4.576-1.739 0-3.155 2.055-3.155 4.577 0 2.516 1.416 4.57 3.155 4.57m32.161-13.602c0 2.796 1.206 5.074 2.686 5.074 1.477 0 2.685-2.278 2.685-5.074 0-2.805-1.15-5.089-2.627-5.089-1.484 0-2.744 2.284-2.744 5.09m-22.456 2.502c0 2.98 1.05 5.405 2.35 5.405 1.303 0 2.362-2.424 2.362-5.405 0-2.979-1.059-5.4-2.361-5.4-1.3 0-2.35 2.421-2.35 5.4" fill="#5B7183"/><path fill="#265B80" d="M149.704 29.73h4.152v17.03h-4.152z"/><path d="M187.02 44.709h.262c.274 0 .533-.086.533-.321 0-.197-.136-.346-.496-.346-.148 0-.235.013-.298.026v.64zm0 1.16h-.384v-2.061c.211-.036.435-.061.72-.061.348 0 .522.06.647.16a.532.532 0 0 1 .209.445c0 .245-.186.407-.397.48v.025c.176.074.274.234.337.506.06.308.111.432.161.505h-.398c-.063-.073-.113-.258-.173-.53-.05-.234-.186-.334-.473-.334h-.248v.864zm-1.226-1.086c0 .912.681 1.629 1.601 1.629.88.013 1.552-.717 1.552-1.617 0-.901-.672-1.628-1.577-1.628-.895 0-1.576.727-1.576 1.616zm3.588 0c0 1.122-.87 1.986-2 1.986-1.131 0-2.023-.864-2.023-1.986 0-1.1.892-1.963 2.036-1.963 1.116 0 1.987.864 1.987 1.963z" fill="#5B7183"/></g></svg>
